packages/icons/src/components/Flags/assets/disabled/portugal.svg

<svg width="24" height="24" viewBox="0 0 24 24" fill="none" xmlns="http://www.w3.org/2000/svg">
<g>
<path d="M0 12C0 17.1595 3.2565 21.5581 7.82602 23.2536L8.86955 12L7.82602 0.746399C3.2565 2.44196 0 6.84043 0 12Z" fill="#8A8A8A"/>
<path d="M23.9999 12C23.9999 5.37262 18.6273 0 11.9999 0C10.5321 0 9.12596 0.264047 7.82593 0.746391V23.2536C9.12596 23.736 10.5321 24 11.9999 24C18.6273 24 23.9999 18.6274 23.9999 12Z" fill="#454545"/>
<path d="M7.82605 16.1738C10.1312 16.1738 11.9999 14.3051 11.9999 11.9999C11.9999 9.69476 10.1312 7.82605 7.82605 7.82605C5.52088 7.82605 3.65216 9.69476 3.65216 11.9999C3.65216 14.3051 5.52088 16.1738 7.82605 16.1738Z" fill="#D5D5D5"/>
<path d="M5.47913 9.91302V12.5217C5.47913 13.8184 6.53025 14.8695 7.82695 14.8695C9.12365 14.8695 10.1748 13.8184 10.1748 12.5217V9.91302H5.47913Z" fill="#454545"/>
<path d="M7.82541 13.3043C7.39388 13.3043 7.04279 12.9532 7.04279 12.5217V11.4783H8.60799V12.5218C8.60799 12.9532 8.25689 13.3043 7.82541 13.3043Z" fill="#F0F0F0"/>
</g>
<defs>
<clipPath id="clip0_3072_397">
<rect width="24" height="24" fill="white"/>
</clipPath>
</defs>
</svg>

<svg xmlns="http://www.w3.org/2000/svg" width="24" height="24" fill="none" viewBox="0 0 24 24">
    <path fill="#8a8a8a" d="M0 12c0 5.16 3.257 9.558 7.826 11.254L8.87 12 7.826.746C3.256 2.442 0 6.84 0 12"/>
    <path fill="#454545" d="M24 12c0-6.627-5.373-12-12-12-1.468 0-2.874.264-4.174.746v22.508c1.3.482 2.706.746 4.174.746 6.627 0 12-5.373 12-12"/>
    <path fill="#d5d5d5" d="M7.826 16.174a4.174 4.174 0 1 0 0-8.348 4.174 4.174 0 0 0 0 8.348"/>
    <path fill="#454545" d="M5.48 9.913v2.609a2.348 2.348 0 1 0 4.695 0V9.913z"/>
    <path fill="#f0f0f0" d="M7.825 13.304a.784.784 0 0 1-.782-.782v-1.044h1.565v1.044a.783.783 0 0 1-.783.782"/>
</svg>
